src/images/github-svgrepo-com.svg

<?xml version="1.0" encoding="utf-8"?><!-- Uploaded to: SVG Repo, www.svgrepo.com, Generator: SVG Repo Mixer Tools -->
<svg width="800px" height="800px" viewBox="0 -0.5 24 24" id="meteor-icon-kit__regular-github" fill="none" xmlns="http://www.w3.org/2000/svg"><path fill-rule="evenodd" clip-rule="evenodd" d="M12.2047 0.00001C6.56031 -0.005731 1.74628 4.08615 0.842541 9.6577C-0.061195 15.2293 3.2126 20.6331 8.56941 22.4118C9.14823 22.5177 9.35294 22.1577 9.35294 21.8541C9.35294 21.5506 9.35294 20.8588 9.35294 19.8988C6.14117 20.5977 5.46353 18.3529 5.46353 18.3529C5.25046 17.6572 4.79779 17.0595 4.18588 16.6659C3.14823 15.96 4.27059 15.96 4.27059 15.96C5.00761 16.0641 5.65578 16.5014 6.02823 17.1459C6.34368 17.7179 6.87393 18.1406 7.50179 18.3208C8.12965 18.5009 8.8034 18.4236 9.37411 18.1059C9.41842 17.5252 9.66876 16.9794 10.08 16.5671C7.5247 16.2777 4.84235 15.2894 4.84235 10.92C4.82481 9.7786 5.24688 8.67412 6.02117 7.8353C5.67632 6.84285 5.71662 5.7571 6.13412 4.79295C6.13412 4.79295 7.10117 4.48236 9.29647 5.97177C11.1816 5.45419 13.1713 5.45419 15.0565 5.97177C17.2518 4.48236 18.2118 4.79295 18.2118 4.79295C18.6351 5.74689 18.6854 6.82486 18.3529 7.81412C19.1272 8.65294 19.5493 9.7574 19.5318 10.8988C19.5318 15.3177 16.8424 16.2847 14.28 16.5459C14.8359 17.1047 15.1218 17.8774 15.0635 18.6635C15.0635 20.2024 15.0635 21.4447 15.0635 21.8188C15.0635 22.1929 15.2682 22.4824 15.8541 22.3694C21.1473 20.5447 24.3569 15.1728 23.4554 9.6469C22.5539 4.1211 17.8034 0.04779 12.2047 0.00001z" fill="#758CA3"/></svg>

<svg xmlns="http://www.w3.org/2000/svg" width="800" height="800" fill="none" viewBox="0 -0.5 24 24"><path fill="#758CA3" fill-rule="evenodd" d="M12.205 0a11.499 11.499 0 0 0-3.636 22.412c.58.106.784-.254.784-.558V19.9c-3.212.699-3.89-1.546-3.89-1.546a3.077 3.077 0 0 0-1.277-1.687c-1.038-.706.085-.706.085-.706a2.421 2.421 0 0 1 1.757 1.186 2.457 2.457 0 0 0 3.346.96c.044-.58.295-1.127.706-1.539-2.555-.29-5.238-1.278-5.238-5.647a4.447 4.447 0 0 1 1.18-3.085 4.193 4.193 0 0 1 .112-3.042s.967-.31 3.162 1.179a10.878 10.878 0 0 1 5.76 0c2.196-1.49 3.156-1.18 3.156-1.18.423.955.473 2.033.14 3.022a4.447 4.447 0 0 1 1.18 3.085c0 4.419-2.69 5.386-5.252 5.647.556.559.842 1.331.784 2.117v3.156c0 .374.204.663.79.55A11.499 11.499 0 0 0 12.204 0z" clip-rule="evenodd"/></svg>
